build/img/icons/screw.svg

<svg width="40" height="40" viewBox="0 0 40 40" fill="none" xmlns="http://www.w3.org/2000/svg">
<path d="M20 28.6885C20.3121 28.2566 23.5156 25.998 23.5156 21.373V0H16.4844V21.373C16.4844 25.977 19.6895 28.2589 20 28.6885ZM20 25.2021C19.5384 24.523 19.207 23.7698 19.0167 22.9737L21.1512 21.9065C21.0598 23.0967 20.6636 24.2259 20 25.2021ZM18.8281 9.00547L21.1719 7.83359V9.9007L18.8281 11.0726V9.00547ZM18.8281 13.693L21.1719 12.5211V14.5882L18.8281 15.7601V13.693ZM18.8281 18.3805L21.1719 17.2087V19.2758L18.8281 20.4477V18.3805ZM21.1719 2.34375V5.21328L18.8281 6.38516V2.34375H21.1719Z" fill="#5CC773"/>
<path d="M25.8594 4.76562V27.0312C25.8594 29.3574 21.9268 31.8009 20 32.7645C18.0724 31.8003 14.1406 29.3571 14.1406 27.0312V4.76562H0V40H40V4.76562H25.8594ZM37.6562 7.10938V9.45312H28.2031V7.10938H37.6562ZM37.6562 11.7969V23.5156H28.2031V11.7969H37.6562ZM11.7969 23.5156H2.34375V11.7969H11.7969V23.5156ZM11.7969 7.10938V9.45312H2.34375V7.10938H11.7969ZM2.34375 37.6562V30.5469H9.45312V28.2031H2.34375V25.8594H11.7969V27.0312C11.7969 29.0387 13.1428 31.0309 15.7973 32.9523C17.1548 33.9351 18.5052 34.6735 20 35.3465C21.4916 34.675 22.8427 33.9369 24.2027 32.9523C26.8572 31.0309 28.2031 29.0387 28.2031 27.0312V25.8594H37.6562V28.2031H30.5469V30.5469H37.6562V37.6562H2.34375Z" fill="#5CC773"/>
<path d="M4.76562 14.1406H7.10938V16.4844H4.76562V14.1406Z" fill="#5CC773"/>
<path d="M7.10938 18.8281H9.45312V21.1719H7.10938V18.8281Z" fill="#5CC773"/>
<path d="M30.5469 18.8281H32.8906V21.1719H30.5469V18.8281Z" fill="#5CC773"/>
<path d="M32.8906 14.1406H35.2344V16.4844H32.8906V14.1406Z" fill="#5CC773"/>
<path d="M4.76562 32.8906H11.7969V35.2344H4.76562V32.8906Z" fill="#5CC773"/>
<path d="M28.2031 32.8906H35.2344V35.2344H28.2031V32.8906Z" fill="#5CC773"/>
</svg>

<svg width="40" height="40" fill="none" xmlns="http://www.w3.org/2000/svg">
    <path d="M20 28.689c.312-.432 3.516-2.691 3.516-7.316V0h-7.032v21.373c0 4.604 3.205 6.886 3.516 7.316zm0-3.487a6.749 6.749 0 0 1-.983-2.228l2.134-1.067A6.765 6.765 0 0 1 20 25.202zM18.828 9.005l2.344-1.171V9.9l-2.344 1.172V9.005zm0 4.688 2.344-1.172v2.067l-2.344 1.172v-2.067zm0 4.688 2.344-1.172v2.067l-2.344 1.172V18.38zm2.344-16.037v2.87l-2.344 1.171V2.344h2.344z" fill="#5CC773"/>
    <path d="M25.86 4.766V27.03c0 2.326-3.933 4.77-5.86 5.733-1.928-.964-5.86-3.407-5.86-5.733V4.766H0V40h40V4.766H25.86zm11.796 2.343v2.344h-9.453V7.11h9.453zm0 4.688v11.719h-9.453v-11.72h9.453zm-25.86 11.719H2.345v-11.72h9.453v11.72zm0-16.407v2.344H2.345V7.11h9.453zM2.345 37.656v-7.11h7.11v-2.343h-7.11V25.86h9.453v1.172c0 2.008 1.346 4 4 5.921 1.358.983 2.708 1.721 4.203 2.395 1.492-.672 2.843-1.41 4.203-2.395 2.654-1.921 4-3.913 4-5.92v-1.173h9.453v2.344h-7.11v2.344h7.11v7.11H2.344z" fill="#5CC773"/>
    <path d="M4.766 14.14h2.343v2.344H4.766v-2.343zM7.11 18.828h2.343v2.344H7.11v-2.344zM30.547 18.828h2.344v2.344h-2.344v-2.344zM32.89 14.14h2.344v2.344h-2.343v-2.343zM4.766 32.89h7.03v2.344h-7.03v-2.343zM28.203 32.89h7.031v2.344h-7.03v-2.343z" fill="#5CC773"/>
</svg>
